X: 7318
T: Click Go The Shears
R: hornpipe
M: 4/4
K: Dmajor
F2 F>E D2 F>A|(3ddd d>c B4|A2 A>B A2 F>D|(3EEE E>F E4|
F2 F>E D2 F>A|(3ddd d>c B4|e>dc>B A>GF>E|D2 d>d d4|
e2 e>d c2 e2|d2 f2 d4|B2 B>c d>cd>B|A>BA>F E>GF>E|
F2 F>E D2 F>A|(3ddd d>c B4|e>dc>B A>GF>E|D2 d>d d4||

